X:1-2
T:Fuga I
Q:"Allegro vivace"
M:3/4
L:1/16
%%staves {(1 2) 3}
K:Gm
%%writefields Q 0
Q:1/4=80
V:1 treble
z12|z12|z12|z12|
V:2
z12|z12|z12|G4zGBA G=F=ED|
V:3 bass
D4zDED CB,A,G,|^F,4zA,DC B,A,G,=F,|\
	E,G,CB, A,B,G,A, ^F,A,DC|B,CA,B, G,2^F,2G,2B,2|
V:1
z12|z12|d4zd_ed cBAG|^F4zAdc BAG=F|
V:2
^C4z=EAG FED=C|B,DGF =EFDE ^CEAG|\
	FG=EFD6=E2|D_EA,B, C2^F2G2B,2|
V:3
A,B,=E,F, G,2^C,2D,2F,2|G,6^G,2A,4-|A,2G,2F,2^F,2G,2^C,2|D,8G,,4|
V:1
EGcB ABGA ^FAd=c|BcAB G_AFG EFDE|\
	CEDC B,BA^F GED^C|D4zded ^cAd=c|
V:2
C6^C2D4-|D2=C2B,2=B,2C2_B,2|C,2z2z4z4|z12|
V:3
C,6A,,2D,4-|D,2B,,2E,6=E,2|\
	D,2^F,2 G,DCA, B,2G,2-|G,^F,A,G, F,2D,2=E,2F,2|
V:1
B6=B2c2e2|g6=B2c2e2|f6d2g4-|g_afg e2z2z4|z12|
V:2
G4zG_AG FEDC|=B,4zDGF EDC_B,|_A,CFE DECD =B,DG=F|
	EFDE C2zc edcB|ABGA ^F2zA dcBA|
V:3
G,2D,2E,2G,2_A,2F,2|G,_A,F,G,E,4_A,4|D,4F,2^F,2G,4|\
	C4zCED CB,A,G,|^F,4zA,DC B,A,G,=F,|
V:1
z12|G4zGBA GF=ED|^C4z=EAG FED=C|B,DGF =EFDE ^CEA=G|
V:2
GFED C2^C2D4-|DECD B,2DC [I:staff +1]B,A,G,B,|\
	A,B,=E,F, G,2^C2D2 B,A,|G,2B,A, G,2^G,2 A,2=B,^C|
V:3
_E,G,CB, A,B,G,A, ^F,A,D=C|B,CA,B,G,4G,,4|A,,4z4z4|z12|
V:1
FG=EF DAdc BG_ed|c4fgef decd|B2z2z4z4|z12|z12|
V:2
[I:staff -1]D2=E2F2^F2 G2cB|ABGAB4FGEF|\
	DFGF EDCB, A,B,CD|EFDE C3A, B,CDE|FGEF G=B,DC ECG,A,|
V:3
z4z4z2E=E|F2_EF D2G,2F,4|B,,4zB,,A,,B,, C,D,E,F,|\
	G,4zE,B,,C, D,E,F,G,|A,F,C,D, E,D,F,E, G,E,_B,,C,|
%
V:1
F4zF=EF GABc|d4zBFG ABcd|ecGA BAcB dBGA|
V:2
B,A,CB, D2z2z4|z12|z12|
V:3
D,C,E,D, F,F,G,F, =E,F,G,A,|B,A,CB, D3B, F,G,A,B,|\
	CDEC DCED B,G,E,F,|
V:1
BAcB dDCD EFGA|Bdfe g3A Bcde|fdAB cBdc ecGA|
V:2
B,4zB,A,B, CDEF|G4zEB,C DEFG|AFCD EDFE GEB,C|
V:3
D,E,C,D,B,,4B,4|B,4E,4C,4|F,8F,4|
V:1
BAcB dB^FG ABGA|^FD^CD G_A=FG Eed=B|c2g2- ggfef4-|
V:2
DCED FDA,B, CDB,C|A,4=B,4=C2_A2|G4_A2c2 =BG=AB|
V:3
B,,6E,4C,2|D,4G,,6F2-|FEDC D2_A,2G,4|
V:1
f2ede4-e_dc=B|c4-c2G2_A4|F_ADE Fzz2z4|
V:2
c2E4_A2-A2G2-|GG_AG F2E2 DECD|=B,4zG_AG FEDC|
V:3
CG,A,=B, CC_DC _B,2E,2|_A,4-A,B,G,A, F,2F,,2|G,,6=B,,2C,2^F,2|
V:1
z12|z12|c4zced cBAG|
V:2
=B,4zDGF EDC_B,|_A,CFE DECD =B,DG=F|EFDE C3D EDCE|
V:3
A,2_A,2 =B,,2=A,,B,, C,2E,2|F,2_A,G, F,2^F,2 G,2=A,=B,|C2=F,G,E,4C,4|
%
V:1
^F4zAdc BAG=F|EGcB ABGA ^FAd=c|B2G2^F2G2A4-|
V:2
DEA,_B, C2A2 GCB,=B,|C2A,B, C2^C2 D2=E^F|G2B,D _EDCB, A,EA,B,|
V:3
D,6^F,2 G,2G,,2|C,6A,,2D,4|zD,E,D, C,B,,A,,G,,^F,,4|
V:1
A2A2 dcBAG4-|G2B2A6e2|d4-dcBAG4-|
V:2
C2^FED6G,2|C6A,2 DEC^F|GDG=F EEDCB,4-|
V:3
zA,,D,C, B,,A,,G,,=F,, E,,G,,C,B,,|\
	A,,B,,G,,A,, ^F,,A,,D,C, B,,C,A,,2|B,,4C,A,,B,,C, D,E,B,,C,|
V:1
G3d edcB AG=FE|Ddg=f edcB =A2^F2|
V:2
B,DED CB,^FG ED_A,G,|B,2B,=B, CB^FG =E_EDC|
V:3
D,4-D,D,E,D, C,B,,=B,,C,|D,4-D,DED ^C=C_B,A,|
V:1
G4z4z2B2-|B2A2z4z2^f2|
V:2
B,4zGBA G=FED|CEcB ABGA ^FAdc|
V:3
G,G,,D,^F, G,B,DC B,A,G,E,|=A,,2E,2 CDB,C A,2D,2|
V:1
gg=fg eede cc_Bc|A2G2^F2E2 D2c2|B2G2 [A,EG]2z2 [A,D^F]2z2|H[B,DG]12|]
V:2
B2A2 GGFG EGFG|E2D2C2B,C A,2A2|G2B,2x4x4|x12|]
V:3
E,6=B,2 CEDE|CC,B,,C, A,,A,G,A, ^F,D,=E,F,|G,=F,_E,D, C,2z2 D,2z2|G,,12|]

